!!!OTL: O gloriosa domina
**kern
*staff1
=1-
*clefC4
*k[b-]
2.G/
4G/
2d\
2A\
=2
4d\
2c\
4F/
1G
=3
2d\
4r
2d\
4d\
2f\
=4
4d\
4c\
2d\
1B-
1A;
=5
!!linebreak:original
*M3/2
1G
2c\
=6
1B-
2F/
=7
1G
2G/
=8
1d
2d\
=9
!LO:TX:Y=-38:t=P
1d
2c\
=10
1f
2B-\
=11
1d
2G/
=12
1d
2d\
=13
!!linebreak:original
*met(c|)
*M2/2
2.G/
4G/
2c\
2G/
=14
2c\
2B-\
1e-
=15
1d
0G
==
*-
!!title: @{OTL}, @{GTL}, ed. @{ENC}
!!!pag:
!!!GTL: Hymnbook D
!!!EFL: 
!!!YEM: Creative Commons CC/BY/NC/SA 4.0
!!!ENC: Marcin Konik
!!!END: 2015-0m-dd
!!!EED: Marcin Konik
!!!EEV: 
!!!ONB: Encoded in vim by Marcin Konik
!!!CharacterEncoding: utf-8
!!!RDF**kern: l=long note in original notation
!!!RDF**kern: i=editorial accidental
!!muse2ps: z14jc180F
!!!COM: Anonim
!!!CDT: [?]
!!!TXO: Polish
!!!ODT: 
!!!GTL: Hymnbook D
!!!ARL: Opactwo św. Wojciecha, Staniątki 
!!!voices:	1
